subcellular/src/assets/icons/svg/soundcloud.svg

<svg xmlns="http://www.w3.org/2000/svg" xmlns:xlink="http://www.w3.org/1999/xlink" width="32" height="32" viewBox="0 0 32 32"><symbol id="c" viewBox="-13.852 -5.808 27.703 11.617"><path fill="#ED1C24" d="M-2.396 3.433a4.428 4.428 0 0 1-.482.168l-.582.122a5.18 5.18 0 0 1-1.162.034l-1.16-.238a4.94 4.94 0 0 1-1.164-.565l-1.16-1.08C-8.563 1.282-9.06.806-9.06.806s-2.1.172-3.325-.806-1.467-1.828-1.467-2.76c0-.93.427-1.76 1.098-2.32 0 0 .744-.552 2.025-.729h21.208v.014c2.323.148 3.372 1.579 3.372 3.327 0 1.845-1.404 3.339-3.294 3.339-.485 0-.886-.1-1.309-.279-.301 2.93-2.804 5.217-5.884 5.217A5.948 5.948 0 0 1-.392 4.477c-.313-.321-.998-1.15-1.213-1.483l-.791.439z"/><path fill="#FFF" d="M-11.746-2.868c0-.801.367-1.517.945-1.999v3.999a2.6 2.6 0 0 1-.945-2m1.945 2.524v-5.049c.236-.063.485-.101.742-.101h.258v5.238a2.742 2.742 0 0 1-1-.088m2.209-.328a2.413 2.413 0 0 1-.209.121v-4.942h1v6.611a4.055 4.055 0 0 1-.791-1.79m1.791 2.719v-7.54h1v8.028a4.216 4.216 0 0 1-1-.488m2 .693v-8.233h1v8.205a4.663 4.663 0 0 1-.631.045c-.125 0-.248-.006-.369-.017m2.551-.58a4.351 4.351 0 0 1-1.051.446v-8.1h1.5v8.251a5.034 5.034 0 0 1-.449-.597m.949 1.097v-8.75h9.5v.012c2 .127 2.902 1.358 2.902 2.863 0 1.588-1.209 2.875-2.836 2.875-.418 0-.762-.087-1.125-.241-.26 2.522-2.414 4.491-5.066 4.491a5.136 5.136 0 0 1-3.375-1.25"/></symbol><use xlink:href="#c" width="27.703" height="11.617" x="-13.852" y="-5.808" transform="matrix(1.0107 0 0 -1.0107 16 16)" overflow="visible"/></svg>

<?xml version="1.0" encoding="utf-8"?>
<!-- Generator: Adobe Illustrator 14.0.0, SVG Export Plug-In . SVG Version: 6.00 Build 43363)  -->
<!DOCTYPE svg PUBLIC "-//W3C//DTD SVG 1.1//EN" "http://www.w3.org/Graphics/SVG/1.1/DTD/svg11.dtd">
<svg version="1.1" id="Layer_1" xmlns="http://www.w3.org/2000/svg" xmlns:xlink="http://www.w3.org/1999/xlink" x="0px" y="0px"
	 width="32px" height="32px" viewBox="0 0 32 32" enable-background="new 0 0 32 32" xml:space="preserve">
<symbol  id="_x5F_button_x5F_base" viewBox="-16.001 -16 32 32">
	<g id="button_x5F_base_3_">
		<g id="button_6_">
			<g>
				
					<use xlink:href="#_x5F_button_x5F_shape"  width="32" height="32" x="-16" y="-16" transform="matrix(1 0 0 1 -9.765625e-004 0)" overflow="visible"/>
			</g>
			<g>
				<g>
					<g>
						<g>
							<path fill="#999999" d="M15.999-12c0-2.209-1.791-4-4-4h-24c-2.209,0-4,1.791-4,4v24c0,2.209,1.791,4,4,4h24
								c2.209,0,4-1.791,4-4V-12z"/>
						</g>
					</g>
				</g>
			</g>
		</g>
	</g>
	<g id="button_3_">
		<g>
			
				<use xlink:href="#_x5F_button_x5F_shape"  width="32" height="32" x="-16" y="-16" transform="matrix(0.9375 0 0 0.9375 -9.765625e-004 0)" overflow="visible"/>
		</g>
		<g>
			<g>
				<g>
					<g>
						<g>
							<path fill="#F2F2F2" d="M14.999-11.25c0-2.071-1.679-3.75-3.75-3.75h-22.5c-2.071,0-3.75,1.679-3.75,3.75v22.5
								c0,2.071,1.679,3.75,3.75,3.75h22.5c2.071,0,3.75-1.679,3.75-3.75V-11.25z"/>
						</g>
					</g>
				</g>
			</g>
		</g>
	</g>
</symbol>
<symbol  id="_x5F_button_x5F_overlay" viewBox="-16.5 -16.5 33 33">
	<g id="_x5F_button_x5F_overlay_1_" opacity="0">
		<g id="button_x5F_overlay_3_">
			<g>
				<use xlink:href="#_x5F_button_x5F_shape"  width="32" height="32" x="-16" y="-16" overflow="visible"/>
			</g>
			<g>
				<g>
					<g>
						<g>
							<path fill="none" stroke="#808080" d="M16-12c0-2.209-1.791-4-4-4h-24c-2.209,0-4,1.791-4,4v24c0,2.209,1.791,4,4,4h24
								c2.209,0,4-1.791,4-4V-12z"/>
						</g>
					</g>
				</g>
			</g>
			<g>
				<g>
					<g>
						<g>
							<path fill="#0000FF" d="M16-12c0-2.209-1.791-4-4-4h-24c-2.209,0-4,1.791-4,4v24c0,2.209,1.791,4,4,4h24c2.209,0,4-1.791,4-4
								V-12z"/>
						</g>
					</g>
				</g>
			</g>
			<g>
				<g>
					<g>
						<g>
							<radialGradient id="SVGID_1_" cx="-9.1748" cy="11.5107" r="24.9406" gradientUnits="userSpaceOnUse">
								<stop  offset="0" style="stop-color:#E6E6E6"/>
								<stop  offset="1" style="stop-color:#000000"/>
							</radialGradient>
							<path fill="url(#SVGID_1_)" d="M16-12c0-2.209-1.791-4-4-4h-24c-2.209,0-4,1.791-4,4v24c0,2.209,1.791,4,4,4h24
								c2.209,0,4-1.791,4-4V-12z"/>
						</g>
					</g>
				</g>
			</g>
		</g>
	</g>
</symbol>
<symbol  id="_x5F_button_x5F_shape" viewBox="-16 -16 32 32">
	<g id="button_x5F_shape_2_">
		<g>
			<g opacity="0">
				<path fill="#FFFFFF" d="M16-12c0-2.209-1.791-4-4-4h-24c-2.209,0-4,1.791-4,4v24c0,2.209,1.791,4,4,4h24c2.209,0,4-1.791,4-4
					V-12z"/>
			</g>
		</g>
	</g>
</symbol>
<symbol  id="skype" viewBox="-13 -12.813 26 25.627">
	<path fill="#73CFEF" d="M11.764-1.674c0.072,0.528,0.113,1.065,0.113,1.611c0,6.56-5.346,11.877-11.939,11.877
		c-0.655,0-1.297-0.054-1.923-0.157c-1.121,0.731-2.455,1.156-3.891,1.156C-9.812,12.813-13,9.624-13,5.688
		c0-1.432,0.423-2.762,1.148-3.879C-11.949,1.199-12,0.574-12-0.063c0-6.56,5.344-11.877,11.938-11.877
		c0.745,0,1.469,0.072,2.173,0.199c1.096-0.679,2.385-1.073,3.766-1.073c3.936,0,7.124,3.19,7.124,7.126
		C13-4.2,12.546-2.817,11.764-1.674z"/>
	<path opacity="0.3" d="M11.764-1.674c0.072,0.528,0.113,1.065,0.113,1.611c0,3.4-1.443,6.457-3.746,8.623
		c2.008-2.126,3.246-4.977,3.246-8.122c0-0.547-0.042-1.083-0.114-1.611c0.783-1.144,1.236-2.526,1.236-4.014
		c0-3.936-3.188-7.126-7.124-7.126c-1.381,0-2.67,0.395-3.766,1.073c-0.704-0.127-1.428-0.199-2.173-0.199
		c-3.177,0-6.054,1.242-8.191,3.253c2.177-2.305,5.262-3.754,8.692-3.754c0.745,0,1.469,0.072,2.173,0.199
		c1.096-0.679,2.385-1.073,3.766-1.073c3.936,0,7.124,3.19,7.124,7.126C13-4.2,12.546-2.817,11.764-1.674z"/>
	<path opacity="0.3" d="M-11.249-0.563c0,0.637,0.051,1.262,0.148,1.872c-0.726,1.116-1.148,2.446-1.148,3.879
		c0,3.936,3.188,7.124,7.124,7.124c1.436,0,2.77-0.425,3.891-1.155c0.626,0.103,1.268,0.156,1.923,0.156
		c2.299,0,4.438-0.657,6.26-1.777c-1.97,1.426-4.388,2.278-7.011,2.278c-0.655,0-1.297-0.054-1.923-0.157
		c-1.121,0.731-2.455,1.156-3.891,1.156C-9.812,12.813-13,9.624-13,5.688c0-1.432,0.423-2.762,1.148-3.879
		C-11.949,1.199-12,0.574-12-0.063c0-4.272,2.274-8.008,5.678-10.099C-9.303-8.004-11.249-4.513-11.249-0.563z"/>
	<g>
		<path opacity="0.3" d="M0.008-9.844c-2.985,0-4.966,0.715-6.834,2.467c-1.211,1.138-1.67,2.555-1.228,3.79
			c0.347,0.971,1.205,1.616,2.238,1.685c1.501,0.102,2.464-0.969,3.164-1.736c0.214-0.234,0.455-0.499,0.59-0.583
			c0.323-0.202,1.381-0.644,2.417-0.644c0.74,0,1.287,0.213,1.671,0.652C2.264-3.941,2.322-3.76,2.304-3.709
			C2.19-3.402,1.184-2.823-0.618-2.56c-3.615,0.535-7.71,2.521-7.357,6.357c0.307,3.32,2.732,5.669,6.18,5.981
			c3.331,0.306,5.704-0.381,7.787-2.158c1.695-1.446,1.477-2.938,1.304-3.512C6.99,3.101,6.115,2.341,5.116,2.22L4.903,2.208l0,0
			c-0.861,0-1.55,0.595-2.279,1.226C1.801,4.146,0.868,4.955-0.34,4.974c-0.001,0-0.001,0-0.001,0c-1.276,0-2.034-0.729-2.079-1.104
			c-0.023-0.195,0.346-0.489,1.098-0.672c0.479-0.116,0.964-0.223,1.446-0.33c3.133-0.69,6.373-1.403,7.718-4.591
			C8.466-3.2,8.305-4.82,7.388-6.284C6.127-8.296,3.662-9.681,1.106-9.813C0.722-9.834,0.355-9.844,0.008-9.844L0.008-9.844z
			 M-5.631-3.896c-0.288-0.018-0.462-0.146-0.54-0.364c-0.128-0.358-0.008-0.98,0.714-1.659c1.406-1.319,2.96-2.077,6.46-1.897
			c1.895,0.099,3.779,1.141,4.689,2.594C6.09-4.589,6.465-3.603,6-2.501C5.057-0.266,2.571,0.281-0.307,0.915
			c-0.496,0.109-0.994,0.22-1.488,0.34c-2.662,0.647-2.672,2.347-2.611,2.853c0.189,1.581,1.993,2.866,4.021,2.866
			C1.627,6.942,2.96,5.789,3.934,4.946c0.322-0.279,0.811-0.702,0.994-0.74c0.129,0.021,0.366,0.198,0.452,0.48
			C5.506,5.104,5.256,5.62,4.693,6.1C3.039,7.511,1.106,8.037-1.615,7.787c-1.942-0.176-4.109-1.365-4.368-4.173
			C-6.225,1-2.541-0.253-0.327-0.581C1.097-0.79,3.578-1.384,4.181-3.018C4.39-3.586,4.447-4.483,3.532-5.53
			C2.768-6.404,1.669-6.865,0.355-6.865l0,0c-1.549,0-2.952,0.619-3.477,0.948C-3.489-5.688-3.8-5.348-4.129-4.986
			C-4.595-4.476-5.123-3.896-5.631-3.896L-5.631-3.896z"/>
		<path fill="#FFFFFF" d="M-1.706,9.283C1.547,9.579,3.666,8.79,5.342,7.36C7.278,5.709,6.23,3.862,4.996,3.713
			c-1.229-0.147-2.609,2.718-5.32,2.761C-3.12,6.518-5.008,3.565-1.559,2.727c3.452-0.838,7.147-1.183,8.479-4.338
			s-2.07-6.507-5.866-6.704C-2.74-8.513-4.515-7.674-6.142-6.147c-1.815,1.705-1.086,3.649,0.393,3.748s2.367-1.676,3.157-2.17
			c0.788-0.492,3.787-1.613,5.371,0.198C4.505-2.399,1.633-1.379-0.474-1.07c-3.006,0.445-6.801,2.071-6.506,5.276
			C-6.684,7.409-4.259,9.052-1.706,9.283z"/>
	</g>
</symbol>
<symbol  id="soundcloud" viewBox="-13.852 -5.808 27.703 11.617">
	<g>
		<path fill="#ED1C24" d="M-2.396,3.433c-0.158,0.063-0.316,0.123-0.482,0.168L-3.46,3.723c-0.239,0.034-0.482,0.053-0.732,0.053
			c-0.146,0-0.288-0.007-0.43-0.019l-1.16-0.238c-0.417-0.138-0.807-0.33-1.164-0.565l-1.16-1.08
			C-8.563,1.282-9.06,0.806-9.06,0.806S-11.16,0.978-12.385,0s-1.467-1.828-1.467-2.76c0-0.93,0.427-1.76,1.098-2.32
			c0,0,0.744-0.552,2.025-0.729h21.208v0.014c2.323,0.148,3.372,1.579,3.372,3.327c0,1.845-1.404,3.339-3.294,3.339
			c-0.485,0-0.886-0.1-1.309-0.279c-0.301,2.93-2.804,5.217-5.884,5.217c-1.433,0-2.732-0.505-3.756-1.332
			c-0.313-0.321-0.998-1.15-1.213-1.483L-2.396,3.433z"/>
	</g>
	<g>
		<path fill="#FFFFFF" d="M-11.746-2.868c0-0.801,0.367-1.517,0.945-1.999v3.999C-11.379-1.351-11.746-2.067-11.746-2.868
			 M-9.801-0.344v-5.049c0.236-0.063,0.485-0.101,0.742-0.101h0.258v5.238c-0.086,0.007-0.172,0.012-0.26,0.012
			C-9.317-0.243-9.565-0.279-9.801-0.344 M-7.592-0.672C-7.66-0.629-7.729-0.587-7.801-0.551v-4.942h1v6.611
			C-7.199,0.603-7.477-0.007-7.592-0.672 M-5.801,2.047v-7.54h1v8.028C-5.158,2.416-5.494,2.251-5.801,2.047 M-3.801,2.74v-8.233h1
			v8.205C-3.006,2.74-3.217,2.757-3.432,2.757C-3.557,2.757-3.68,2.751-3.801,2.74 M-1.25,2.16
			c-0.326,0.191-0.678,0.344-1.051,0.446v-8.1h1.5v8.251C-0.965,2.57-1.115,2.37-1.25,2.16 M-0.301,3.257v-8.75h9.5v0.012
			c2,0.127,2.902,1.358,2.902,2.863c0,1.588-1.209,2.875-2.836,2.875c-0.418,0-0.762-0.087-1.125-0.241
			c-0.26,2.522-2.414,4.491-5.066,4.491C1.777,4.507,0.598,4.035-0.301,3.257"/>
	</g>
</symbol>
<g>
	
		<use xlink:href="#soundcloud"  width="27.703" height="11.617" x="-13.852" y="-5.808" transform="matrix(1.0107 0 0 -1.0107 16 16)" overflow="visible"/>
</g>
</svg>
